svg/emoji_u1f9b9.svg

<?xml version="1.0" encoding="UTF-8" standalone="no"?>
<svg
   xmlns:dc="http://purl.org/dc/elements/1.1/"
   xmlns:cc="http://creativecommons.org/ns#"
   xmlns:rdf="http://www.w3.org/1999/02/22-rdf-syntax-ns#"
   xmlns:svg="http://www.w3.org/2000/svg"
   xmlns="http://www.w3.org/2000/svg"
   xmlns:sodipodi="http://sodipodi.sourceforge.net/DTD/sodipodi-0.dtd"
   xmlns:inkscape="http://www.inkscape.org/namespaces/inkscape"
   width="128"
   height="128"
   style="enable-background:new 0 0 128 128;"
   version="1.1"
   id="svg18"
   sodipodi:docname="emoji_u1f9b9.svg"
   inkscape:version="0.92.3 (2405546, 2018-03-11)">
  <metadata
     id="metadata24">
    <rdf:RDF>
      <cc:Work
         rdf:about="">
        <dc:format>image/svg+xml</dc:format>
        <dc:type
           rdf:resource="http://purl.org/dc/dcmitype/StillImage" />
        <dc:title></dc:title>
      </cc:Work>
    </rdf:RDF>
  </metadata>
  <defs
     id="defs22" />
  <sodipodi:namedview
     pagecolor="#ffffff"
     bordercolor="#666666"
     borderopacity="1"
     objecttolerance="10"
     gridtolerance="10"
     guidetolerance="10"
     inkscape:pageopacity="0"
     inkscape:pageshadow="2"
     inkscape:window-width="1920"
     inkscape:window-height="1046"
     id="namedview20"
     showgrid="false"
     inkscape:object-paths="true"
     inkscape:zoom="3.6875"
     inkscape:cx="24.75109"
     inkscape:cy="50.798175"
     inkscape:window-x="-11"
     inkscape:window-y="-11"
     inkscape:window-maximized="1"
     inkscape:current-layer="svg18" />
  <path
     d="M63.79,8.64C1.48,8.64,0,78.5,0,92.33c0,13.83,28.56,25.03,63.79,25.03 c35.24,0,63.79-11.21,63.79-25.03C127.58,78.5,126.11,8.64,63.79,8.64z"
     style="fill:#FCC21B;"
     id="path2" />
  <path
     d="M96.46,70.26c-3.09-2.09-6.98-0.71-10.42,0c-9.58,1.98-18,2.06-22.04,2.06s-12.46-0.08-22.04-2.06 c-3.44-0.71-7.33-2.09-10.42,0c-3.92,2.65-1.03,12.15,5.14,18.57c3.73,3.88,12.61,11.41,27.32,11.41c14.71,0,23.59-7.53,27.32-11.41 C97.49,82.41,100.37,72.91,96.46,70.26z"
     style="fill:#ED6C30;"
     id="path10" />
  <path
     style="opacity:1;vector-effect:none;fill:#7c00b0;fill-opacity:0.82304525;stroke:none;stroke-width:0.97736496;stroke-linecap:butt;stroke-linejoin:miter;stroke-miterlimit:4;stroke-dasharray:none;stroke-dashoffset:0;stroke-opacity:1;paint-order:normal"
     d="M 29.339844 33.558594 L 25.121094 38.162109 L 19.558594 34.998047 L 15.636719 42.220703 C 15.636719 42.220703 15.652181 42.228434 15.652344 42.228516 C 13.306642 42.887984 11.060496 43.591144 8.9589844 44.349609 C 6.3674063 50.238785 4.5234855 56.304044 3.2148438 62.111328 C 10.461804 63.097447 19.85387 63.882513 30.505859 64.421875 C 41.157847 64.961237 53.506966 63.358665 65.355469 63.359375 C 77.203972 63.360085 87.881783 65.00476 97.974609 64.535156 C 108.06744 64.065551 117.13807 63.377899 124.45898 62.507812 C 123.12584 56.491382 121.21459 50.184417 118.5 44.076172 C 116.45315 43.359584 114.2757 42.695115 112.00781 42.070312 L 108.16797 34.998047 L 102.60742 38.162109 L 98.388672 33.558594 L 78.496094 41.09375 C 78.496873 41.095004 78.497268 41.096402 78.498047 41.097656 C 72.571078 43.143076 67.020927 45.521904 64 45.523438 C 60.963075 45.524981 55.286406 43.132735 49.230469 41.097656 C 49.231248 41.096402 49.231643 41.095004 49.232422 41.09375 L 29.339844 33.558594 z "
     id="path845" />
  <g
     id="g16"
     style="fill:#272727;fill-opacity:1">
    <path
       style="fill:#272727;fill-opacity:1"
       d="M 39.724609 42.314453 C 36.371633 43.534131 33.949177 47.270176 33.990234 51.679688 C 34.040234 57.029687 37.720937 61.340781 42.210938 61.300781 C 46.700938 61.250781 50.3 56.879297 50.25 51.529297 C 50.23071 49.457514 49.665794 47.547764 48.726562 45.980469 L 39.724609 42.314453 z "
       id="path12" />
    <path
       style="fill:#272727;fill-opacity:1"
       d="M 88.431641 42.25 L 79.810547 45.761719 C 78.775605 47.393836 78.156046 49.42341 78.160156 51.630859 C 78.180156 56.980859 81.830313 61.310781 86.320312 61.300781 C 90.800313 61.290781 94.429922 56.939844 94.419922 51.589844 C 94.411586 47.113658 91.870761 43.369735 88.431641 42.25 z "
       id="path14" />
  </g>
</svg>

<svg xmlns="http://www.w3.org/2000/svg" width="128" height="128"><path d="M63.79 8.64C1.48 8.64 0 78.5 0 92.33c0 13.83 28.56 25.03 63.79 25.03 35.24 0 63.79-11.21 63.79-25.03 0-13.83-1.47-83.69-63.79-83.69z" fill="#fcc21b"/><path d="M96.46 70.26c-3.09-2.09-6.98-.71-10.42 0-9.58 1.98-18 2.06-22.04 2.06s-12.46-.08-22.04-2.06c-3.44-.71-7.33-2.09-10.42 0-3.92 2.65-1.03 12.15 5.14 18.57 3.73 3.88 12.61 11.41 27.32 11.41s23.59-7.53 27.32-11.41c6.17-6.42 9.05-15.92 5.14-18.57z" fill="#ed6c30"/><path d="M29.34 33.559l-4.219 4.603-5.562-3.164-3.922 7.223.015.008a97.722 97.722 0 0 0-6.693 2.12c-2.592 5.89-4.436 11.955-5.744 17.762 7.247.986 16.639 1.772 27.29 2.31 10.653.54 23.002-1.062 34.85-1.062 11.849.001 22.527 1.646 32.62 1.176 10.092-.47 19.163-1.157 26.484-2.027-1.333-6.017-3.244-12.324-5.959-18.432a100.616 100.616 0 0 0-6.492-2.006l-3.84-7.072-5.56 3.164-4.22-4.603-19.892 7.535.002.004C72.571 43.143 67.021 45.522 64 45.523c-3.037.002-8.714-2.39-14.77-4.425l.002-.004-19.892-7.535z" fill="#7c00b0" fill-opacity=".823" stroke-width=".977"/><g fill="#272727"><path d="M39.725 42.314c-3.353 1.22-5.776 4.956-5.735 9.366.05 5.35 3.73 9.66 8.22 9.62 4.49-.05 8.09-4.42 8.04-9.77-.02-2.072-.584-3.982-1.523-5.55l-9.002-3.666zM88.432 42.25l-8.621 3.512c-1.035 1.632-1.655 3.661-1.65 5.869.02 5.35 3.67 9.68 8.16 9.67 4.48-.01 8.109-4.361 8.099-9.711-.008-4.476-2.55-8.22-5.988-9.34z"/></g></svg>
